X:1
T:Greystone, 76.76 D
T:Greystone, 76.76 D
T:William Richard Waghorne, 1905
T:Public Domain Courtesy of the Cyber Hymnal™
C:William Richard Waghorne, 1905
Z:Public Domain
Z:Courtesy of the Cyber Hymnal™
%%score ( 1 2 ) ( 3 4 )
L:1/8
Q:1/4=110
M:4/4
K:G
V:1 treble 
V:2 treble 
V:3 bass 
V:4 bass 
V:1
 [DG]2 D2 [DG]2 [CA]2 | [B,B]3 [CA] [DG]2 [=FG]2 | [Ec]2 [Gc]2 ([GB][FA]) ([GB][Ac]) | [FA]8 | %4
 [DG]2 D2 [DG]2 [CA]2 | [B,B]3 [CA] G2 G2 | [Dd]2 (dc) B2 z x3 | [B,G]6 [=FG]2 | %8
 [EG]2 ([CE][D=F]) [EG]2 [FA]2 | [=FA]4 [EG]2 [EG]2 | [Ec]2 ([GB][EA]) [DE]2 [C^F]2 | %11
 [B,G]6 [=FG]2 | [EG]2 ([CE][D=F]) [EG]2 [FA]2 | [=FA]4 [EG]2 [FG]2 | %14
 [EG]2 ([EG][D=F]) [CE]2 [B,D]2 x | C8 |] %16
V:2
 x2 D2 x4 | x8 | x8 | x8 | x2 D2 x4 | x4 (DE) (_FE) | x2 E2 D3 (A2 C) | x8 | x8 | x8 | x8 | x8 | %12
 x8 | x8 | x9 | C8 |] %16
V:3
 [B,,G,]2 F,2 [B,,G,]2 [A,,F,]2 | [G,,G,]3 [A,,G,] [B,,G,]2 [D,B,]2 | C2 C2 [G,D]2 (DE) | [D,A,]8 | %4
 [G,,B,]2 F,2 [B,,G,]2 [A,,F,]2 | [G,,G,]3 [A,,G,] G,2 G,2 | [B,,G,]2 [C,G,]2 [D,G,]2 [D,F,]2 x2 | %7
 [G,,G,]6 [G,,B,]2 | [C,C]2 [C,G,]2 [C,C]2 [=F,C]2 | (A,3 B,) [C,C]2 [C,C]2 | %10
 [A,,C]2 ([B,,D][C,C]) [D,B,]2 [D,A,]2 | [G,,G,]6 [G,,B,]2 | [C,C]2 [C,G,]2 [C,C]2 [=F,C]2 | %13
 (A,G,A,B,) [C,C]2 [D,B,]2 | (CG,) [=F,A,]2 G,3 z F, | [C,E,]8 |] %16
V:4
 x2 (D,C,) x4 | x8 | (C,D,) (E,F,) x C,2 x | x8 | x2 (D,C,) x4 | x4 (B,,C,) (D,C,) | x10 | x8 | %8
 x8 | =F,4 x4 | x8 | x8 | x8 | =F,4 x4 | E,2 x G,2 G,,2 x2 | x8 |] %16

